X: 24731
T: Mad Magician, The
R: slip jig
M: 9/8
K: Dmajor
|:F~D2 E~D2 FGA|F~D2 E~D2 B,DA,|F~D2 E~D2 FGA|cBA BAF GFE:|
|:~F3 FGA c3|dcA BAF GFE|~F3 FGA E3|FED EDB, DB,A,:|

